packages/elvis-assets-icons/icons/svg/src/note_check-color.svg

<svg width="24" height="24" viewBox="0 0 24 24" fill="none" xmlns="http://www.w3.org/2000/svg">
<path d="M2.25 24C1.009 24 0 22.991 0 21.75V3.75C0 2.509 1.009 1.5 2.25 1.5H4.5V0.75C4.5 0.336 4.836 0 5.25 0C5.664 0 6 0.336 6 0.75V1.5H18V0.75C18 0.336 18.336 0 18.75 0C19.164 0 19.5 0.336 19.5 0.75V1.5H21.75C22.991 1.5 24 2.509 24 3.75V21.75C24 22.991 22.991 24 21.75 24H2.25ZM2.25 3C1.836 3 1.5 3.336 1.5 3.75V21.75C1.5 22.164 1.836 22.5 2.25 22.5H21.75C22.164 22.5 22.5 22.164 22.5 21.75V3.75C22.5 3.336 22.164 3 21.75 3H19.5V3.75C19.5 4.164 19.164 4.5 18.75 4.5C18.336 4.5 18 4.164 18 3.75V3H6V3.75C6 4.164 5.664 4.5 5.25 4.5C4.836 4.5 4.5 4.164 4.5 3.75V3H2.25Z" fill="black"/>
<path d="M12.875 18.75C12.392 18.75 12 18.414 12 18C12 17.586 12.392 17.25 12.875 17.25H18.125C18.608 17.25 19 17.586 19 18C19 18.414 18.608 18.75 18.125 18.75H12.875Z" fill="#29D305"/>
<path d="M12.875 11.2501C12.392 11.2501 12 10.9141 12 10.5001C12 10.0861 12.392 9.75006 12.875 9.75006H18.125C18.608 9.75006 19 10.0861 19 10.5001C19 10.9141 18.608 11.2501 18.125 11.2501H12.875Z" fill="#29D305"/>
<path d="M8.74343 8.28038C8.87508 8.10416 9.08426 8 9.30226 8C9.45351 8 9.59859 8.0485 9.72038 8.13997C9.86925 8.25206 9.96678 8.41632 9.99299 8.60334C10.0192 8.7894 9.97132 8.97544 9.85939 9.12527L7.17416 12.7196C7.05207 12.8824 6.86682 12.9842 6.66529 12.9982L6.66379 12.9982C6.64896 12.9991 6.63228 13 6.61618 13C6.43078 13 6.25484 12.9273 6.12338 12.7945L4.20559 10.8692C4.07318 10.7371 4 10.5595 4 10.3716C4 10.1838 4.07307 10.0063 4.20544 9.87426C4.33689 9.74143 4.5128 9.66881 4.69816 9.66881C4.88356 9.66881 5.05951 9.74146 5.19097 9.87434L6.54084 11.2287L8.74343 8.28038Z" fill="black"/>
<path d="M8.74343 15.2804C8.87508 15.1042 9.08426 15 9.30226 15C9.45351 15 9.59859 15.0485 9.72038 15.14C9.86925 15.2521 9.96678 15.4163 9.99299 15.6033C10.0192 15.7894 9.97132 15.9754 9.85939 16.1253L7.17416 19.7196C7.05207 19.8824 6.86682 19.9842 6.66529 19.9982L6.66379 19.9982C6.64896 19.9991 6.63228 20 6.61618 20C6.43078 20 6.25484 19.9273 6.12338 19.7945L4.20559 17.8692C4.07318 17.7371 4 17.5595 4 17.3716C4 17.1838 4.07307 17.0063 4.20544 16.8743C4.33689 16.7414 4.5128 16.6688 4.69816 16.6688C4.88356 16.6688 5.05951 16.7415 5.19097 16.8743L6.54084 18.2287L8.74343 15.2804Z" fill="black"/>
</svg>

<svg width="24" height="24" fill="none" xmlns="http://www.w3.org/2000/svg"><path d="M2.25 24A2.252 2.252 0 010 21.75v-18A2.252 2.252 0 012.25 1.5H4.5V.75a.75.75 0 011.5 0v.75h12V.75a.75.75 0 011.5 0v.75h2.25A2.252 2.252 0 0124 3.75v18A2.252 2.252 0 0121.75 24H2.25zm0-21a.75.75 0 00-.75.75v18c0 .414.336.75.75.75h19.5a.75.75 0 00.75-.75v-18a.75.75 0 00-.75-.75H19.5v.75a.75.75 0 01-1.5 0V3H6v.75a.75.75 0 01-1.5 0V3H2.25z" fill="#000"/><path d="M12.875 18.75c-.483 0-.875-.336-.875-.75s.392-.75.875-.75h5.25c.483 0 .875.336.875.75s-.392.75-.875.75h-5.25zM12.875 11.25c-.483 0-.875-.336-.875-.75s.392-.75.875-.75h5.25c.483 0 .875.336.875.75s-.392.75-.875.75h-5.25z" fill="#29D305"/><path d="M8.743 8.28a.7.7 0 01.977-.14.704.704 0 01.139.985L7.174 12.72a.697.697 0 01-.509.278h-.001a.69.69 0 01-.54-.204L4.205 10.87A.7.7 0 014 10.372a.699.699 0 011.191-.498l1.35 1.355L8.743 8.28zM8.743 15.28a.7.7 0 01.977-.14.704.704 0 01.139.985L7.174 19.72a.697.697 0 01-.509.278h-.001a.69.69 0 01-.54-.204L4.205 17.87A.7.7 0 014 17.372a.699.699 0 011.191-.498l1.35 1.355 2.202-2.949z" fill="#000"/></svg>
